X:654
T:The frieze britches
R:Jig
O:Ireland
S:Richard Darsie's web page
Z:Transcription, chords:Mike Long
M:6/8
L:1/8
K:G
"D"FED "A"EFG|"D"AdB cAG|"C"AGA BAG|"(A)"FAF GED|\
"D"FED "A"EFG|"D"AdB cAG|"C/A"FEF "A"GEA|"D"DED D2A:|
|:"D"d2e fed|efd cAG|"C"AGA BAG|"(A)"FAF GED|\
"D"d2e fed|efd cAG|"C"FEF "A"GEA|"D"DED D2A:|
|:"D"DED "C"c3|"C"AdB cAG|"A"AB^c d2e|"C/D"fed =cAG|\
"D"DED "C"c3|"C"AdB cAG|"A"FEF GEA|"D"DED D2A:|
|:"D"d2e fdd|add fdd|"A"^c2d eAA|fAA eAA|\
"D"d2e fdd|add fdd|"D"faf "A"ge^c|"D"dfe d2e:|
|:"D"fed "A"ed^c|"D"ded =cAG|"C"AGA BAG|"(A)"FAF GED|\
"D"fed "A"ed^c|"D"ded =cAG|"C/A"FEF "A"GEA|"D"DED D3:|
